public/avatar/body/53.svg

<svg xmlns:xlink="http://www.w3.org/1999/xlink" height="82" width="84.85" xmlns="http://www.w3.org/2000/svg"><g transform="translate(37.4 42.25)"><use height="38" transform="translate(-11.95 -17.45)" width="32.05" xlink:href="#a"/><use height="38.95" transform="translate(-12.45 -17.95)" width="33.05" xlink:href="#b"/><use height="22" transform="translate(-12.6 3.1)" width="34.35" xlink:href="#c"/><use height="7.5" transform="translate(2.85 10.55)" width="8.45" xlink:href="#d"/><use height="7.5" transform="translate(10.8 15.45)" width="8.45" xlink:href="#d"/><use height="7.5" transform="translate(-6.75 15.45)" width="8.45" xlink:href="#d"/><use height="7.5" transform="translate(-11.7 7.95)" width="8.45" xlink:href="#d"/><use height="7.5" transform="matrix(.7412 0 0 1 13.65 7.25)" width="8.45" xlink:href="#d"/><use height="23.4" transform="translate(-13.1 2.35)" width="35.4" xlink:href="#e"/></g><defs><path d="M27.35 7.4q2.15 4.15 3.55 8.75 1.45 4.7 1.15 9.5-.35 4.95-4.2 8.1-3.8 3.2-8.75 4.05l-2.6.2q-3.6 0-7.05-1.15-4.65-1.6-7.1-5.5Q-.2 27.4.05 23q.2-4.4 2-9.3Q3.85 8.75 7 5.05 10.1 1.3 14.7.1l1.8-.1q1.9.05 3.7.8 4.75 2.05 7.15 6.6" fill="#c49480" fill-rule="evenodd" transform="translate(-.05)" id="f"/><path d="M27.35 7.4Q24.95 2.85 20.2.8 17.55-.3 14.7.1 10.1 1.3 7 5.05q-3.15 3.7-4.95 8.65-1.8 4.9-2 9.3-.25 4.4 2.3 8.35 2.45 3.9 7.1 5.5 4.65 1.55 9.65.95 4.95-.85 8.75-4.05 3.85-3.15 4.2-8.1.3-4.8-1.15-9.5-1.4-4.6-3.55-8.75Z" fill="none" stroke="#000" stroke-linecap="round" stroke-linejoin="round" transform="translate(.45 .5)" id="g"/><path d="M21.3 18.6q.75 1.3.25 1.85-4.1 4.45-16.5 4.65-6.95.1-12.2-1.6-5.2-1.65-5.45-4.05 1.3-1.7 1.3-3.7 0-5.15-.15-6.65V3.45l.35.95 1.95 2.15 2.2 1.25q.4-.05.95.3l.35.2q3.8 1.3 9.85 1.3 9.3 0 13.4-3.25 2.1-1.6 2.3-3.25v6.65q0 2.15.35 6.2 0 .95 1.05 2.65" fill="#008cff" fill-rule="evenodd" transform="translate(12.6 -3.1)" id="c"/><path d="M7.05 4.2 5.3 3.45l-.25-1.9-1.15 1-1.25-.75.4 1.75-1.5 1.4 2.25-.4L4.9 6.3V4.45l2.15-.25m-1-1 1.35-.15q1.3.1 1 1.5-.45 1.95-2.45.8 1.6 1.2-.4 1.95-2.4.9-3.15-1.85-1.5 2-2.25.25-.45-1.1.4-1.85l1-.55L1 2.25Q.65 1.1 1.9.45q1.85-.95 1.7 1.3Q3.9-.75 5.65.3q2.15 1.25.4 2.9" fill="#dee5ff" fill-rule="evenodd" id="h"/><use height="38" width="32.05" xlink:href="#f" id="a"/><use height="38.95" width="33.05" xlink:href="#g" id="b"/><use height="7.5" width="8.45" xlink:href="#h" id="d"/><g id="e" fill="none" stroke-linecap="round" stroke-linejoin="round"><path d="m-11.45 3.45-.4 1.65.6 10.25q-.1 2.65-1.35 4.1-.35 2 4.3 3.8 5.15 2 12.8 2 7.1 0 12.3-1.95 3.6-1.4 4.75-2.85.55-.75 0-1.75l-1.05-1.6q-.4-.85-1.35-5.85L20 3.5" stroke="#4553ad" transform="translate(13.1 -2.35)"/><path d="m-11.6 2.85.25 1.05q.45 1.25 1.7 2.35Q-5.75 9.6 4.2 9.6q8.6 0 13.05-2.85Q19.5 5.3 20 3.85" stroke="#d4daff" transform="translate(13.1 -2.35)"/></g></defs></svg>

<?xml version="1.0" encoding="UTF-8" standalone="no"?>
<svg xmlns:xlink="http://www.w3.org/1999/xlink" height="82.0px" width="84.85px" xmlns="http://www.w3.org/2000/svg">
  <g transform="matrix(1.0, 0.0, 0.0, 1.0, 37.4, 42.25)">
    <use height="38.0" transform="matrix(1.0, 0.0, 0.0, 1.0, -11.95, -17.45)" width="32.05" xlink:href="#sprite0"/>
    <use height="38.95" transform="matrix(1.0, 0.0, 0.0, 1.0, -12.45, -17.95)" width="33.05" xlink:href="#sprite1"/>
    <use height="22.0" transform="matrix(1.0, 0.0, 0.0, 1.0, -12.6, 3.1)" width="34.35" xlink:href="#shape2"/>
    <use height="7.5" transform="matrix(1.0, 0.0, 0.0, 1.0, 2.85, 10.55)" width="8.45" xlink:href="#sprite2"/>
    <use height="7.5" transform="matrix(1.0, 0.0, 0.0, 1.0, 10.8, 15.45)" width="8.45" xlink:href="#sprite2"/>
    <use height="7.5" transform="matrix(1.0, 0.0, 0.0, 1.0, -6.75, 15.45)" width="8.45" xlink:href="#sprite2"/>
    <use height="7.5" transform="matrix(1.0, 0.0, 0.0, 1.0, -11.7, 7.95)" width="8.45" xlink:href="#sprite2"/>
    <use height="7.5" transform="matrix(0.7412, 0.0, 0.0, 1.0, 13.65, 7.25)" width="8.45" xlink:href="#sprite2"/>
    <use height="23.4" transform="matrix(1.0, 0.0, 0.0, 1.0, -13.1, 2.35)" width="35.4" xlink:href="#shape4"/>
  </g>
  <defs>
    <g id="sprite0" transform="matrix(1.0, 0.0, 0.0, 1.0, -0.05, 0.0)">
      <use height="38.0" transform="matrix(1.0, 0.0, 0.0, 1.0, 0.05, 0.0)" width="32.05" xlink:href="#shape0"/>
    </g>
    <g id="shape0" transform="matrix(1.0, 0.0, 0.0, 1.0, -0.05, 0.0)">
      <path d="M27.35 7.4 Q29.5 11.55 30.9 16.15 32.35 20.85 32.05 25.65 31.7 30.6 27.85 33.75 24.05 36.95 19.1 37.8 L16.5 38.0 Q12.9 38.0 9.45 36.85 4.8 35.25 2.35 31.35 -0.2 27.4 0.05 23.0 0.25 18.6 2.05 13.7 3.85 8.75 7.0 5.05 10.1 1.3 14.7 0.1 L16.5 0.0 Q18.4 0.05 20.2 0.8 24.95 2.85 27.35 7.4" fill="#c49480" fill-rule="evenodd" stroke="none"/>
    </g>
    <g id="sprite1" transform="matrix(1.0, 0.0, 0.0, 1.0, 0.45, 0.5)">
      <use height="38.95" transform="matrix(1.0, 0.0, 0.0, 1.0, -0.45, -0.5)" width="33.05" xlink:href="#shape1"/>
    </g>
    <g id="shape1" transform="matrix(1.0, 0.0, 0.0, 1.0, 0.45, 0.5)">
      <path d="M27.35 7.4 Q24.95 2.85 20.2 0.8 17.55 -0.3 14.7 0.1 10.1 1.3 7.0 5.05 3.85 8.75 2.05 13.7 0.25 18.6 0.05 23.0 -0.2 27.4 2.35 31.35 4.8 35.25 9.45 36.85 14.1 38.4 19.1 37.8 24.05 36.95 27.85 33.75 31.7 30.6 32.05 25.65 32.35 20.85 30.9 16.15 29.5 11.55 27.35 7.4 Z" fill="none" stroke="#000000" stroke-linecap="round" stroke-linejoin="round" stroke-width="1.0"/>
    </g>
    <g id="shape2" transform="matrix(1.0, 0.0, 0.0, 1.0, 12.6, -3.1)">
      <path d="M21.3 18.6 Q22.05 19.9 21.55 20.45 17.45 24.9 5.05 25.1 -1.9 25.2 -7.15 23.5 -12.35 21.85 -12.6 19.45 -11.3 17.75 -11.3 15.75 -11.3 10.6 -11.45 9.1 L-11.45 3.45 -11.1 4.4 -9.15 6.55 -6.95 7.8 Q-6.55 7.75 -6.0 8.1 L-5.65 8.3 Q-1.85 9.6 4.2 9.6 13.5 9.6 17.6 6.35 19.7 4.75 19.9 3.1 L19.9 9.75 Q19.9 11.9 20.25 15.95 20.25 16.9 21.3 18.6" fill="#008cff" fill-rule="evenodd" stroke="none"/>
    </g>
    <g id="sprite2" transform="matrix(1.0, 0.0, 0.0, 1.0, 0.0, 0.0)">
      <use height="7.5" transform="matrix(1.0, 0.0, 0.0, 1.0, 0.0, 0.0)" width="8.45" xlink:href="#shape3"/>
    </g>
    <g id="shape3" transform="matrix(1.0, 0.0, 0.0, 1.0, 0.0, 0.0)">
      <path d="M7.05 4.2 L5.3 3.45 5.05 1.55 3.9 2.55 2.65 1.8 3.05 3.55 1.55 4.95 3.8 4.55 4.9 6.3 4.9 4.45 7.05 4.2 M6.05 3.2 L7.4 3.05 Q8.7 3.15 8.4 4.55 7.95 6.5 5.95 5.35 7.55 6.55 5.55 7.3 3.15 8.2 2.4 5.45 0.9 7.45 0.15 5.7 -0.3 4.6 0.55 3.85 L1.55 3.3 1.0 2.25 Q0.65 1.1 1.9 0.45 3.75 -0.5 3.6 1.75 3.9 -0.75 5.65 0.3 7.8 1.55 6.05 3.2" fill="#dee5ff" fill-rule="evenodd" stroke="none"/>
    </g>
    <g id="shape4" transform="matrix(1.0, 0.0, 0.0, 1.0, 13.1, -2.35)">
      <path d="M-11.45 3.45 L-11.85 5.1 -11.25 15.35 Q-11.35 18.0 -12.6 19.45 -12.95 21.45 -8.3 23.25 -3.15 25.25 4.5 25.25 11.6 25.25 16.8 23.3 20.4 21.9 21.55 20.45 22.1 19.7 21.55 18.7 L20.5 17.1 Q20.1 16.25 19.15 11.25 L20.0 3.5" fill="none" stroke="#4553ad" stroke-linecap="round" stroke-linejoin="round" stroke-width="1.0"/>
      <path d="M-11.6 2.85 L-11.35 3.9 Q-10.9 5.15 -9.65 6.25 -5.75 9.6 4.2 9.6 12.8 9.6 17.25 6.75 19.5 5.3 20.0 3.85" fill="none" stroke="#d4daff" stroke-linecap="round" stroke-linejoin="round" stroke-width="1.0"/>
    </g>
  </defs>
</svg>
